X:1
T: Colonel Campbell of Shaufield's Strathspey
C:R. Mackintosh
R:Strathspey
Q: 128
K:A
M:4/4
L:1/16
|:cB|AE3 CE3 A,E3 CE3|B,2Bc dcBA G2B2 B2cB|A3E FA3 E3A FD3|EC3 B,3C A,2A2 A2cB|
AE3 CE3 A,E3 CE3|B,2Bc dcBA G2B2 B2cB|A3E FA3 E3A FD3|EC3 B,3C A,2A2 A2fg|
ae3 ac3 ea3 cA3|d3B dcBA G2B2 B2cd|ca3 ea3 fa3 fd3|e3c dcBA E2A2 A2fg|
ae3 ac3 ea3 cA3|d2B2 dcBA G2B2 B2cB|((3A2c2A2) ((3B2d2B2) ((3c2e2c2) ((3d2f2d2) |e3c dBcA E2A2 A2:|
